X:1
T:The Boys of the Blue Hill  "Arranged by Tommy Tully"
M:C|
L:1/8
Q:80
C:Traditional Irish
S:Hornpipe
K:HP
|: {g}d3/4B/4 | \
{gBd}B3/4A/4{g}G3/4{d}B/4{g}A{GAG}A | \
{gBd}((3B3/4A/4{g}B/2c/2d/2){gef}e{g}d3/4e/4 |
{g}f3/4a/4{g}a3/4f/4{g}((3e/2f/2g/2){a}f3/4e/4 | \
{g}((3d/2e/2f/2){g}e3/4d/4{gBd}B{g}d3/4B/4{gBd}B3/4A/4{g}G3/4{d}B/4{g}A{
GAG}A | \
{gBd}((3B3/4A/4{g}B/2c/2d/2){gef}e{g}d3/4e/4 |
{g}f3/4a/4{g}a3/4f/4{g}((3e/2f/2g/2){a}f3/4e/4 | \
{g}d3/4e/4{gde}d3/4c/4{Gdc}d :: \
{g}f3/4g/4 |
a3/4f/4{g}d3/4f/4{ag}ag3/4f/4 | \
{a}g3/4a/4g3/4f/4{gf}g{a}f3/4e/4 | \
{g}f3/4a/4{g}a3/4f/4{g}((3e/2f/2g/2){a}f3/4e/4 |
{g}((3d/2e/2f/2){g}e3/4d/4{gBd}B{g}d3/4B/4{gBd}B3/4A/4{g}G3/4{d}B/4{g}A{
GAG}A | \
{gBd}((3B3/4A/4{g}B/2c/2d/2){gef}e{g}d3/4e/4 | \
{g}f3/4a/4{g}a3/4f/4{g}((3e/2f/2g/2){a}f3/4e/4 |
{g}d3/4e/4{gde}d3/4c/4{Gdc}d :|
